flaticon/casino-gambling/diamonds.svg

<svg xmlns="http://www.w3.org/2000/svg" width="32" height="32" viewBox="0 0 24 24">
    <path d="M 12 0 L 2.148438 12 L 12 24 L 21.851562 12 Z M 3.203125 12 L 12 1.296875 L 20.796875 12 L 12 22.703125 Z M 3.203125 12"/>
    <path d="M 15.082031 16.945312 C 14.917969 16.824219 14.636719 16.863281 14.511719 17.027344 L 11.675781 20.554688 C 11.554688 20.714844 11.59375 21 11.757812 21.121094 C 11.835938 21.164062 11.917969 21.203125 12 21.203125 C 12.121094 21.203125 12.242188 21.164062 12.324219 21.039062 L 15.164062 17.511719 C 15.285156 17.351562 15.242188 17.066406 15.082031 16.945312 Z M 15.082031 16.945312"/>
</svg>

<svg xmlns="http://www.w3.org/2000/svg" width="32" height="32" viewBox="0 0 24 24">
    <path d="M12 0L2.148 12 12 24l9.852-12zM3.203 12L12 1.297 20.797 12 12 22.703zm0 0"/>
    <path d="M15.082 16.945a.438.438 0 0 0-.57.082l-2.836 3.528c-.121.16-.082.445.082.566.078.043.16.082.242.082.121 0 .242-.039.324-.164l2.84-3.527c.121-.16.078-.446-.082-.567zm0 0"/>
</svg>
